Point/img/instagram.svg

<svg width="41" height="41" viewBox="0 0 41 41" fill="none" xmlns="http://www.w3.org/2000/svg">
<path fill-rule="evenodd" clip-rule="evenodd" d="M11.8671 0.120782C14.0137 0.0219604 14.6981 0 20.1663 0C25.6344 0 26.3188 0.0237904 28.4636 0.120782C30.6084 0.217774 32.0725 0.55999 33.3535 1.05593C34.6949 1.56285 35.9119 2.35525 36.9184 3.38007C37.9432 4.38476 38.7338 5.5999 39.2389 6.94315C39.7366 8.22417 40.077 9.6882 40.1758 11.8293C40.2747 13.9796 40.2966 14.6641 40.2966 20.1304C40.2966 25.5985 40.2728 26.2829 40.1758 28.4296C40.0789 30.5707 39.7366 32.0347 39.2389 33.3158C38.7338 34.6592 37.9419 35.8763 36.9184 36.8825C35.9119 37.9073 34.6949 38.6979 33.3535 39.203C32.0725 39.7008 30.6084 40.0411 28.4673 40.14C26.3188 40.2388 25.6344 40.2607 20.1663 40.2607C14.6981 40.2607 14.0137 40.237 11.8671 40.14C9.72592 40.043 8.26189 39.7008 6.98087 39.203C5.63748 38.6978 4.42032 37.906 3.41413 36.8825C2.39001 35.8772 1.59748 34.6606 1.09182 33.3176C0.595879 32.0366 0.255493 30.5725 0.156671 28.4314C0.057849 26.2811 0.0358887 25.5967 0.0358887 20.1304C0.0358887 14.6622 0.0596791 13.9778 0.156671 11.833C0.253663 9.6882 0.595879 8.22417 1.09182 6.94315C1.59823 5.60005 2.39136 4.3835 3.41596 3.37824C4.42072 2.35434 5.63666 1.56183 6.97904 1.05593C8.26006 0.55999 9.72409 0.219604 11.8652 0.120782H11.8671ZM28.3008 3.74425C26.1779 3.64726 25.5411 3.62713 20.1663 3.62713C14.7915 3.62713 14.1546 3.64726 12.0318 3.74425C10.0681 3.83392 9.00305 4.1615 8.293 4.43783C7.35419 4.80384 6.68257 5.23756 5.97801 5.94212C5.31013 6.59188 4.79614 7.38287 4.47372 8.25711C4.19739 8.96717 3.86981 10.0322 3.78014 11.9959C3.68315 14.1187 3.66302 14.7556 3.66302 20.1304C3.66302 25.5052 3.68315 26.142 3.78014 28.2649C3.86981 30.2285 4.19739 31.2936 4.47372 32.0036C4.79581 32.8766 5.31005 33.669 5.97801 34.3186C6.62767 34.9866 7.42007 35.5008 8.293 35.8229C9.00305 36.0992 10.0681 36.4268 12.0318 36.5165C14.1546 36.6135 14.7896 36.6336 20.1663 36.6336C25.5429 36.6336 26.1779 36.6135 28.3008 36.5165C30.2644 36.4268 31.3295 36.0992 32.0395 35.8229C32.9783 35.4569 33.6499 35.0232 34.3545 34.3186C35.0225 33.669 35.5367 32.8766 35.8588 32.0036C36.1351 31.2936 36.4627 30.2285 36.5524 28.2649C36.6494 26.142 36.6695 25.5052 36.6695 20.1304C36.6695 14.7556 36.6494 14.1187 36.5524 11.9959C36.4627 10.0322 36.1351 8.96717 35.8588 8.25711C35.4928 7.31831 35.0591 6.64668 34.3545 5.94212C33.7047 5.27429 32.9137 4.7603 32.0395 4.43783C31.3295 4.1615 30.2644 3.83392 28.3008 3.74425ZM17.5951 26.336C19.031 26.9338 20.63 27.0144 22.1188 26.5643C23.6076 26.1141 24.894 25.161 25.7581 23.8677C26.6223 22.5745 27.0107 21.0214 26.8569 19.4736C26.7032 17.9258 26.0169 16.4794 24.9152 15.3814C24.2129 14.6796 23.3637 14.1422 22.4288 13.8079C21.4939 13.4736 20.4965 13.3508 19.5084 13.4482C18.5203 13.5457 17.5661 13.861 16.7145 14.3715C15.8629 14.882 15.135 15.5749 14.5834 16.4005C14.0317 17.226 13.67 18.1636 13.5242 19.1457C13.3784 20.1279 13.4521 21.1301 13.7402 22.0803C14.0282 23.0305 14.5233 23.905 15.1899 24.6409C15.8565 25.3768 16.6779 25.9557 17.5951 26.336ZM12.8498 12.8139C13.8106 11.8531 14.9512 11.0909 16.2066 10.5709C17.462 10.0509 18.8075 9.78331 20.1663 9.78331C21.5251 9.78331 22.8705 10.0509 24.1259 10.5709C25.3813 11.0909 26.5219 11.8531 27.4827 12.8139C28.4435 13.7747 29.2057 14.9154 29.7257 16.1707C30.2457 17.4261 30.5133 18.7716 30.5133 20.1304C30.5133 21.4892 30.2457 22.8347 29.7257 24.09C29.2057 25.3454 28.4435 26.486 27.4827 27.4468C25.5423 29.3873 22.9105 30.4774 20.1663 30.4774C17.4221 30.4774 14.7902 29.3873 12.8498 27.4468C10.9093 25.5064 9.8192 22.8746 9.8192 20.1304C9.8192 17.3862 10.9093 14.7543 12.8498 12.8139ZM32.8081 11.3242C33.0462 11.0996 33.2368 10.8296 33.3687 10.53C33.5005 10.2304 33.5709 9.90738 33.5757 9.5801C33.5805 9.25282 33.5195 8.92791 33.3965 8.6246C33.2734 8.3213 33.0908 8.04576 32.8593 7.81432C32.6279 7.58287 32.3523 7.40021 32.049 7.27716C31.7457 7.15411 31.4208 7.09317 31.0935 7.09794C30.7662 7.10271 30.4432 7.1731 30.1437 7.30494C29.8441 7.43678 29.574 7.62739 29.3494 7.86548C28.9126 8.32854 28.6734 8.9436 28.6827 9.5801C28.692 10.2166 28.9489 10.8244 29.3991 11.2746C29.8492 11.7247 30.457 11.9816 31.0935 11.9909C31.73 12.0002 32.3451 11.7611 32.8081 11.3242Z" fill="#00325A"/>
</svg>

<svg width="41" height="41" fill="none" xmlns="http://www.w3.org/2000/svg"><path fill-rule="evenodd" clip-rule="evenodd" d="M11.867.12c2.147-.098 2.831-.12 8.3-.12 5.467 0 6.152.024 8.297.12 2.144.098 3.608.44 4.89.936a9.904 9.904 0 013.564 2.324 9.833 9.833 0 012.32 3.563c.499 1.281.839 2.745.938 4.886.099 2.15.12 2.835.12 8.301 0 5.469-.023 6.153-.12 8.3-.097 2.14-.44 3.605-.937 4.886a9.875 9.875 0 01-2.32 3.566 9.87 9.87 0 01-3.566 2.321c-1.28.498-2.745.838-4.886.937-2.148.099-2.833.12-8.3.12-5.469 0-6.153-.023-8.3-.12-2.141-.097-3.605-.44-4.886-.937a9.877 9.877 0 01-3.567-2.32 9.868 9.868 0 01-2.322-3.565C.596 32.037.255 30.573.157 28.43c-.1-2.15-.121-2.834-.121-8.3 0-5.469.024-6.153.12-8.298.098-2.145.44-3.609.936-4.89a9.875 9.875 0 012.324-3.565 9.868 9.868 0 013.563-2.322C8.26.56 9.724.22 11.865.12h.002zm16.434 3.624c-2.123-.097-2.76-.117-8.135-.117s-6.011.02-8.134.117c-1.964.09-3.029.417-3.739.694-.939.366-1.61.8-2.315 1.504a6.244 6.244 0 00-1.504 2.315c-.277.71-.604 1.775-.694 3.739-.097 2.123-.117 2.76-.117 8.134 0 5.375.02 6.012.117 8.135.09 1.963.417 3.029.694 3.739a6.248 6.248 0 001.504 2.315 6.248 6.248 0 002.315 1.504c.71.276 1.775.604 3.739.694 2.123.096 2.758.117 8.134.117 5.377 0 6.012-.02 8.135-.117 1.963-.09 3.029-.418 3.738-.694.94-.366 1.61-.8 2.316-1.504a6.247 6.247 0 001.504-2.315c.276-.71.604-1.775.693-3.74.097-2.122.117-2.759.117-8.134 0-5.374-.02-6.011-.117-8.134-.09-1.964-.417-3.029-.693-3.739-.366-.939-.8-1.61-1.505-2.315a6.246 6.246 0 00-2.315-1.504c-.71-.276-1.775-.604-3.738-.694zM17.595 26.336a6.714 6.714 0 007.32-10.955 6.717 6.717 0 10-7.32 10.955zM12.85 12.814a10.347 10.347 0 1114.633 14.632A10.347 10.347 0 0112.85 12.814zm19.958-1.49a2.447 2.447 0 10-3.358-3.56 2.447 2.447 0 003.358 3.56z" fill="#00325A"/></svg>
